dist/assets/icons/mail.svg

<svg width="96" height="96" viewBox="0 0 96 96" fill="none" xmlns="http://www.w3.org/2000/svg">
<path fill-rule="evenodd" clip-rule="evenodd" d="M1.5 16C1.5 13.5147 3.51472 11.5 6 11.5H90C92.4853 11.5 94.5 13.5147 94.5 16V80C94.5 82.4853 92.4853 84.5 90 84.5H6C3.51472 84.5 1.5 82.4853 1.5 80V16ZM89.6102 14.5H6.3898C4.98094 14.5 4.34926 16.2666 5.43868 17.1599L45.1466 49.7204C46.8057 51.0808 49.1943 51.0808 50.8534 49.7204L90.5613 17.1599C91.6507 16.2666 91.0191 14.5 89.6102 14.5ZM4.5 20.2698V75.7302L38.3173 48L4.5 20.2698ZM40.6829 49.9398L5.43868 78.8401C4.34925 79.7334 4.98094 81.5 6.3898 81.5H89.6102C91.0191 81.5 91.6507 79.7334 90.5613 78.8401L55.3171 49.9398L52.7556 52.0402C49.9906 54.3076 46.0094 54.3076 43.2444 52.0402L40.6829 49.9398ZM57.6827 48L91.5 20.2698V75.7302L57.6827 48Z" fill="white"/>
</svg>

<svg width="96" height="96" fill="none" xmlns="http://www.w3.org/2000/svg"><path fill-rule="evenodd" clip-rule="evenodd" d="M1.5 16A4.5 4.5 0 016 11.5h84a4.5 4.5 0 014.5 4.5v64a4.5 4.5 0 01-4.5 4.5H6A4.5 4.5 0 011.5 80V16zm88.11-1.5H6.39c-1.41 0-2.04 1.767-.951 2.66l39.708 32.56a4.5 4.5 0 005.706 0l39.708-32.56c1.09-.893.458-2.66-.95-2.66zM4.5 20.27v55.46L38.317 48 4.5 20.27zm36.183 29.67L5.439 78.84c-1.09.893-.458 2.66.95 2.66H89.61c1.41 0 2.04-1.767.951-2.66l-35.244-28.9-2.561 2.1a7.5 7.5 0 01-9.512 0l-2.561-2.1zm17-1.94L91.5 20.27v55.46L57.683 48z" fill="#fff"/></svg>
